website/src/img/navbar-logo.svg

<svg width="269" height="29" viewBox="0 0 269 29" fill="none" xmlns="http://www.w3.org/2000/svg">
<path d="M23.4981 15.0796L15.3062 9.66292" stroke="currentColor" stroke-width="1.5"/>
<path d="M13.5495 10.6765L5.13574 17.5368" stroke="currentColor" stroke-width="1.5"/>
<circle cx="15.3062" cy="9.87143" r="2.5" fill="currentColor"/>
<circle cx="24.4253" cy="15.4999" r="2.5" fill="currentColor"/>
<path fill-rule="evenodd" clip-rule="evenodd" d="M39.0634 1.18082C37.3824 5.02684 33.5508 10.4602 25.7158 14.8452L26.4484 16.1541C35.3439 11.1756 39.3594 4.83494 40.8931 0.649414L39.0634 1.18082Z" fill="currentColor"/>
<path d="M20.0245 24.3591C30.557 24.3591 38.883 13.9299 38.0182 4.55039C33.3567 7.24046 29.6467 7.39479 25.4478 4.80047C25.4478 5.98148 25.4478 7.28989 25.8275 8.62738C24.5782 7.99523 21.0402 6.60317 19.5147 2.88528C7.43611 1.27871 1.55713 11.6345 1.55713 11.6345C1.55713 11.6345 2.35881 18.0066 11.1225 22.5621C11.1225 22.5621 14.7183 21.9522 18.6672 20.0884C18.6672 22.2358 16.9517 24.2321 16.9517 24.2321C18.1176 24.3591 18.9998 24.3591 20.0245 24.3591Z" stroke="currentColor" stroke-width="1.5"/>
<path d="M48.975 23H60.2V19.55H52.6V5.25H48.975V23ZM65.7219 6.275C65.7219 5.075 64.7469 4.1 63.5219 4.1C62.3469 4.1 61.3469 5.075 61.3469 6.275C61.3469 7.475 62.3469 8.45 63.5219 8.45C64.7469 8.45 65.7219 7.475 65.7219 6.275ZM61.8219 23H65.2469V10.5H61.8219V23ZM80.1857 22.025V10.5H76.7607V11.9C76.1107 10.95 74.7357 10.225 73.1357 10.225C69.8857 10.225 67.2357 13.025 67.2357 16.55C67.2357 20.05 69.8857 22.85 73.1357 22.85C74.7357 22.85 76.1107 22.125 76.7607 21.2V22.05C76.7607 24.05 75.4357 25.475 73.4107 25.475C72.0357 25.475 70.6107 24.975 69.5107 23.925L67.6357 26.475C69.0607 27.825 71.3107 28.475 73.4607 28.475C77.2857 28.475 80.1857 26.55 80.1857 22.025ZM70.6857 16.55C70.6857 14.625 72.1357 13.35 73.8607 13.35C75.5857 13.35 77.0357 14.625 77.0357 16.55C77.0357 18.45 75.5857 19.75 73.8607 19.75C72.1357 19.75 70.6857 18.45 70.6857 16.55ZM82.9654 23H86.3904V16.9C86.3904 14.5 87.5904 13.35 89.1654 13.35C90.5904 13.35 91.3654 14.45 91.3654 16.25V23H94.7904V15.675C94.7904 12.425 92.9904 10.225 89.9654 10.225C88.3404 10.225 87.0404 10.925 86.3904 11.925V4.25H82.9654V23ZM105.51 22.875V19.85C105.11 20 104.66 20.075 104.11 20.075C102.635 20.075 101.985 19.475 101.985 17.95V13.5H105.51V10.5H101.985V7.025H98.5598V10.5H96.0348V13.5H98.5598V18.625C98.5598 21.675 100.685 23.15 103.335 23.15C104.285 23.15 104.96 23.05 105.51 22.875ZM118.154 23H121.554L125.679 10.5H122.004L119.654 18.5L117.104 10.5H114.479L111.954 18.5L109.579 10.5H105.929L110.079 23H113.479L115.804 15.875L118.154 23ZM125.978 16.75C125.978 20.7 128.878 23.275 132.603 23.275C135.228 23.275 137.253 22.15 138.403 20.475L135.853 18.575C135.303 19.425 134.178 20.15 132.628 20.15C130.978 20.15 129.503 19.225 129.303 17.55H138.653C138.703 17.025 138.703 16.675 138.703 16.375C138.703 12.325 135.828 10.225 132.553 10.225C128.753 10.225 125.978 13.05 125.978 16.75ZM132.453 13.05C133.728 13.05 134.978 13.75 135.278 15.225H129.428C129.753 13.7 131.178 13.05 132.453 13.05ZM144.631 6.275C144.631 5.075 143.656 4.1 142.431 4.1C141.256 4.1 140.256 5.075 140.256 6.275C140.256 7.475 141.256 8.45 142.431 8.45C143.656 8.45 144.631 7.475 144.631 6.275ZM140.731 23H144.156V10.5H140.731V23ZM159.095 22.025V10.5H155.67V11.9C155.02 10.95 153.645 10.225 152.045 10.225C148.795 10.225 146.145 13.025 146.145 16.55C146.145 20.05 148.795 22.85 152.045 22.85C153.645 22.85 155.02 22.125 155.67 21.2V22.05C155.67 24.05 154.345 25.475 152.32 25.475C150.945 25.475 149.52 24.975 148.42 23.925L146.545 26.475C147.97 27.825 150.22 28.475 152.37 28.475C156.195 28.475 159.095 26.55 159.095 22.025ZM149.595 16.55C149.595 14.625 151.045 13.35 152.77 13.35C154.495 13.35 155.945 14.625 155.945 16.55C155.945 18.45 154.495 19.75 152.77 19.75C151.045 19.75 149.595 18.45 149.595 16.55ZM161.875 23H165.3V16.9C165.3 14.5 166.5 13.35 168.075 13.35C169.5 13.35 170.275 14.45 170.275 16.25V23H173.7V15.675C173.7 12.425 171.9 10.225 168.875 10.225C167.25 10.225 165.95 10.925 165.3 11.925V4.25H161.875V23ZM184.419 22.875V19.85C184.019 20 183.569 20.075 183.019 20.075C181.544 20.075 180.894 19.475 180.894 17.95V13.5H184.419V10.5H180.894V7.025H177.469V10.5H174.944V13.5H177.469V18.625C177.469 21.675 179.594 23.15 182.244 23.15C183.194 23.15 183.869 23.05 184.419 22.875ZM190.826 14.125C190.826 19.2 194.926 23.3 200.001 23.3C203.626 23.3 206.676 21.425 208.201 18.575L205.051 16.825C204.001 18.65 202.301 19.8 200.001 19.8C196.901 19.8 194.476 17.225 194.476 14.125C194.476 11.025 196.901 8.45 200.001 8.45C202.301 8.45 204.001 9.6 205.051 11.425L208.201 9.675C206.676 6.825 203.626 4.95 200.001 4.95C194.926 4.95 190.826 9.05 190.826 14.125ZM209.875 23H213.3V16.9C213.3 14.5 214.5 13.35 216.075 13.35C217.5 13.35 218.275 14.45 218.275 16.25V23H221.7V15.675C221.7 12.425 219.9 10.225 216.875 10.225C215.25 10.225 213.95 10.925 213.3 11.925V4.25H209.875V23ZM223.54 16.75C223.54 20.3 226.09 23.275 229.415 23.275C231.14 23.275 232.465 22.4 233.015 21.6V23H236.44V10.5H233.015V11.9C232.465 11.1 231.14 10.225 229.415 10.225C226.09 10.225 223.54 13.2 223.54 16.75ZM233.29 16.75C233.29 18.7 232.015 20.15 230.14 20.15C228.265 20.15 226.99 18.7 226.99 16.75C226.99 14.8 228.265 13.35 230.14 13.35C232.015 13.35 233.29 14.8 233.29 16.75ZM239.27 23H242.695V17.025C242.695 14.975 243.77 13.7 245.395 13.7C245.945 13.7 246.42 13.8 246.945 13.975V10.5C246.52 10.375 246.145 10.35 245.795 10.35C244.395 10.35 243.12 11.275 242.695 12.5V10.5H239.27V23ZM256.858 22.875V19.85C256.458 20 256.008 20.075 255.458 20.075C253.983 20.075 253.333 19.475 253.333 17.95V13.5H256.858V10.5H253.333V7.025H249.908V10.5H247.383V13.5H249.908V18.625C249.908 21.675 252.033 23.15 254.683 23.15C255.633 23.15 256.308 23.05 256.858 22.875ZM267.752 19.2C267.752 17.025 266.377 15.925 264.127 15.325L262.952 14.975C261.902 14.7 261.727 14.275 261.727 13.9C261.727 13.325 262.377 13.05 262.977 13.05C263.802 13.05 264.527 13.425 265.102 14.15L267.352 12.325C266.402 10.95 264.927 10.225 263.027 10.225C260.377 10.225 258.377 11.7 258.327 14C258.277 15.925 259.477 17.4 261.777 18L262.702 18.225C264.077 18.6 264.377 18.9 264.377 19.425C264.377 20.05 263.702 20.325 263.002 20.325C261.802 20.325 260.752 19.8 260.202 18.875L257.852 20.875C258.927 22.5 260.802 23.275 263.002 23.275C265.677 23.275 267.752 21.625 267.752 19.2Z" fill="currentColor"/>
</svg>

<svg xmlns="http://www.w3.org/2000/svg" width="269" height="29" viewBox="0 0 269 29" fill="none"><path d="M23.5 15.08l-8.2-5.42M13.55 10.68l-8.41 6.86" stroke="currentColor" stroke-width="1.5"/><circle cx="15.31" cy="9.87" r="2.5" fill="currentColor"/><circle cx="24.43" cy="15.5" r="2.5" fill="currentColor"/><path d="M39.06 1.18c-1.68 3.85-5.5 9.28-13.34 13.67l.73 1.3c8.9-4.97 12.9-11.32 14.44-15.5l-1.83.53z" fill="currentColor"/><path d="M20.02 24.36c10.54 0 18.86-10.43 18-19.81-4.66 2.69-8.37 2.84-12.57.25 0 1.18 0 2.49.38 3.83C24.58 8 21.04 6.6 19.5 2.89 7.44 1.28 1.56 11.63 1.56 11.63s.8 6.38 9.56 10.93c0 0 3.6-.6 7.55-2.47 0 2.15-1.72 4.14-1.72 4.14 1.17.13 2.05.13 3.07.13z" stroke="currentColor" stroke-width="1.5"/><path d="M48.98 23H60.2v-3.45h-7.6V5.25h-3.63V23zM65.72 6.27a2.2 2.2 0 0 0-4.38 0 2.2 2.2 0 0 0 4.38 0zM61.82 23h3.43V10.5h-3.43V23zm18.37-.98V10.5h-3.43v1.4a4.42 4.42 0 0 0-3.62-1.68c-3.25 0-5.9 2.8-5.9 6.33 0 3.5 2.65 6.3 5.9 6.3 1.6 0 2.97-.73 3.62-1.65v.85c0 2-1.32 3.43-3.35 3.43-1.37 0-2.8-.5-3.9-1.55l-1.87 2.55c1.42 1.34 3.67 2 5.82 2 3.83 0 6.73-1.93 6.73-6.46zm-9.5-5.47a3.1 3.1 0 0 1 3.17-3.2 3.1 3.1 0 0 1 3.18 3.2c0 1.9-1.45 3.2-3.18 3.2a3.12 3.12 0 0 1-3.17-3.2zM82.97 23h3.42v-6.1c0-2.4 1.2-3.55 2.78-3.55 1.42 0 2.2 1.1 2.2 2.9V23h3.42v-7.32c0-3.25-1.8-5.46-4.82-5.46-1.63 0-2.93.7-3.58 1.7V4.26h-3.42V23zm22.54-.13v-3.02c-.4.15-.85.22-1.4.22-1.47 0-2.13-.6-2.13-2.12V13.5h3.53v-3h-3.53V7.03h-3.42v3.47h-2.53v3h2.53v5.13c0 3.05 2.13 4.52 4.77 4.52.95 0 1.63-.1 2.18-.27zm12.64.13h3.4l4.13-12.5H122l-2.35 8-2.55-8h-2.62l-2.53 8-2.37-8h-3.65l4.15 12.5h3.4l2.32-7.13 2.35 7.13zm7.83-6.25c0 3.95 2.9 6.52 6.62 6.52 2.63 0 4.65-1.12 5.8-2.8l-2.55-1.9a3.76 3.76 0 0 1-3.22 1.58c-1.65 0-3.13-.92-3.33-2.6h9.35c.05-.53.05-.88.05-1.18 0-4.05-2.87-6.15-6.15-6.15a6.39 6.39 0 0 0-6.57 6.53zm6.47-3.7c1.28 0 2.53.7 2.83 2.17h-5.85c.32-1.52 1.75-2.17 3.02-2.17zm12.18-6.78a2.2 2.2 0 0 0-4.38 0 2.2 2.2 0 0 0 4.38 0zM140.73 23h3.43V10.5h-3.43V23zm18.37-.98V10.5h-3.43v1.4a4.42 4.42 0 0 0-3.63-1.68c-3.25 0-5.9 2.8-5.9 6.33 0 3.5 2.66 6.3 5.9 6.3 1.6 0 2.98-.73 3.63-1.65v.85c0 2-1.32 3.43-3.35 3.43-1.38 0-2.8-.5-3.9-1.55l-1.88 2.55c1.43 1.34 3.68 2 5.83 2 3.82 0 6.72-1.93 6.72-6.46zm-9.5-5.47a3.1 3.1 0 0 1 3.17-3.2 3.1 3.1 0 0 1 3.17 3.2c0 1.9-1.44 3.2-3.17 3.2a3.12 3.12 0 0 1-3.18-3.2zM161.88 23h3.42v-6.1c0-2.4 1.2-3.55 2.77-3.55 1.43 0 2.2 1.1 2.2 2.9V23h3.43v-7.32c0-3.25-1.8-5.46-4.82-5.46-1.63 0-2.93.7-3.58 1.7V4.26h-3.43V23zm22.54-.13v-3.02c-.4.15-.85.22-1.4.22-1.48 0-2.13-.6-2.13-2.12V13.5h3.53v-3h-3.53V7.03h-3.42v3.47h-2.53v3h2.53v5.13c0 3.05 2.12 4.52 4.77 4.52.95 0 1.63-.1 2.18-.27zm6.4-8.75c0 5.08 4.1 9.18 9.18 9.18a9.14 9.14 0 0 0 8.2-4.73l-3.15-1.75A5.6 5.6 0 0 1 200 19.8a5.6 5.6 0 0 1-5.52-5.68A5.6 5.6 0 0 1 200 8.46c2.3 0 4 1.15 5.05 2.98l3.15-1.75a9.14 9.14 0 0 0-8.2-4.73 9.17 9.17 0 0 0-9.17 9.18zM209.89 23h3.42v-6.1c0-2.4 1.2-3.55 2.77-3.55 1.43 0 2.2 1.1 2.2 2.9V23h3.43v-7.32c0-3.25-1.8-5.46-4.82-5.46-1.63 0-2.93.7-3.58 1.7V4.26h-3.43V23zm13.66-6.25c0 3.55 2.55 6.52 5.88 6.52 1.72 0 3.05-.87 3.6-1.67V23h3.42V10.5h-3.43v1.4a4.46 4.46 0 0 0-3.6-1.68c-3.32 0-5.87 2.98-5.87 6.53zm9.75 0c0 1.95-1.28 3.4-3.15 3.4-1.88 0-3.15-1.45-3.15-3.4s1.27-3.4 3.15-3.4 3.15 1.45 3.15 3.4zm5.98 6.25h3.42v-5.98c0-2.04 1.08-3.32 2.7-3.32.56 0 1.03.1 1.56.28V10.5c-.43-.13-.8-.15-1.16-.15-1.4 0-2.67.93-3.1 2.15v-2h-3.42V23zm17.59-.13v-3.02c-.4.15-.85.22-1.4.22-1.48 0-2.13-.6-2.13-2.12V13.5h3.53v-3h-3.53V7.03h-3.42v3.47h-2.53v3h2.53v5.13c0 3.05 2.12 4.52 4.77 4.52.95 0 1.63-.1 2.18-.27zm10.9-3.67c0-2.18-1.38-3.27-3.63-3.88l-1.18-.35c-1.05-.27-1.22-.7-1.22-1.07 0-.58.65-.85 1.25-.85.82 0 1.55.38 2.12 1.1l2.25-1.83a4.97 4.97 0 0 0-4.32-2.1c-2.65 0-4.65 1.48-4.7 3.78-.05 1.93 1.15 3.4 3.45 4l.92.23c1.38.37 1.68.67 1.68 1.2 0 .62-.68.9-1.38.9-1.2 0-2.25-.53-2.8-1.45l-2.35 2c1.08 1.62 2.95 2.4 5.15 2.4 2.68 0 4.75-1.66 4.75-4.08z" fill="currentColor"/></svg>
